!!!OTL: Jetzt reisen wir zum Tor hinaus (1-4), S. 10
!!!id: K0083
**kern
*clefG2
*k[f#]
*G:
{8d
=1
4g
4g
4g
4g
=2
4g
4b
4a
4g
=3
2a}
4r
=4
{8d
8f#
=5
4a
4a
4a
4a
=6
4a
4cc
4b
4a
=7
2b}
4r
=8
{4dd
=9
4dd
4b
4b
4b
=10
4b
4dd
4dd}
=11
{8cc
8b
=12
4a
8a
8a
4a
4a
=13
4a
8ee
8ee
4dd}
=14
{4b
=15
4g
4dd
4dd
4cc
=16
2b}
4.r
==
*-
!!!minrhy: 8
!!!meters: 4/4 ]  ZZ[5
!!!cut: Jetzt reisen wir zum Tor hinaus (1-4), S. 10
!!!reg: Luxemburg
!!!trd: KINTZELE, Guillaume: An der Ucht, Bd. 1, Luxemburg 1926
!!!rhy1: X  X_X_X_X_  X_X_X_X_  X__0_
!!!rhy2: XX  X_X_X_X_  X_X_X_X_  X__0_
!!!key: K0083  08  G 4/4 ]  ZZ[5
!!!mod: HEPTATONIK IONISCH]  AMBITUS[9
!!!kad: 23553
!!!akz: 11122_22233_5335_2225_153_
!!!fot: 'a__as'b__as"c__
!!!for: 'a__av_aw_b__aw_
!!!fok: '/__/__V__Va_S__
!! PHRAS[AUFTAKTIG]
!!!fkt: Trennung
!!!bem: in der Quelle mit einer 2. Stimme versehen
!! KINTZELE
!! PR[15] 2K[4] 2G[15] 3K[2] 3G[4] 4A[6] 4Ü[0] 5A[0] 6K[0] 6G[0]
!! 7K[0] 7G[0] 8A[2] MEHR[0] SI[33] ABS[48] SR[19] SP[15]
!! ST[10] 2k[10] 2g[38] 3k[2] 3g[0] 4d[2] 4ü[0] 5d[0] 6k[0] 6g[0]
!! 7k[0] 7g[0] 8d[0] mehr[0] si[52] dm[-19] sr[48] sp[4]
!! 1F[80] 2F[20] 3F[0] 4F[0] LF[0] 2P[0] 3P[0] 4P[0] TRI[0] DF[2] AB[50]
!! TF[0] U3K[0] U3[0] U4[0] U4Ü[0] U5[10] U6K[0] U6[8] U7K[0] U7[10]
!! N1[22] N2K[0] N2[20] N3K[0] N3[8] N4[0] N4Ü[2] N5[14] N6K[0] N6[4]
!!!n7k: 0] N7[0] O1[0] O2K[0] O2[0] O3K[0] O3[0] HÖ[0
